public/ldialog.svg

<svg width="90.919" height="50" viewBox="0 0 90.919 50" fill="none" xmlns="http://www.w3.org/2000/svg"><path d="M7.679 0H21.637l-2.458 2.13H4.821L7.679 0Z" fill="#CFFF47"/><path d="M50.336 5.361v24.801l-4.541 4.377v11.185L41.579 49.776H0.224V7.631l4.541 -4.377 25.786 0.112L34.443 0.336h11.028L50.336 5.361Z" stroke="#CFFF47" stroke-width="0.44842909987669544"/><path d="M32.623 0h-1.879L28.251 2.13h1.938L32.623 0Z" fill="#CFFF47"/><path d="M50.336 32.735v1.879L48.206 37.108v-1.938L50.336 32.735Z" fill="#CFFF47"/><path d="M29.933 0h-1.879L25.56 2.13h1.938L29.933 0Z" fill="#CFFF47"/><path d="M50.336 35.426v1.879L48.206 39.798v-1.938L50.336 35.426Z" fill="#CFFF47"/><path d="M27.354 0h-1.879L22.982 2.13h1.938L27.354 0Z" fill="#CFFF47"/><path d="M50.336 38.004v1.879L48.206 42.377v-1.938L50.336 38.004Z" fill="#CFFF47"/><path d="M24.776 0h-1.879L20.404 2.13h1.938L24.776 0Z" fill="#CFFF47"/><path d="M50.336 40.583v1.879L48.206 44.955v-1.938L50.336 40.583Z" fill="#CFFF47"/><path opacity="0.99" d="M48.094 5.027v26.288l-2.757 2.759v11.034L41.12 49.327H0.897V8.111l3.893 -3.895h26.112L34.47 1.457h10.218L48.094 5.027Z" fill="#CFFF47"/></svg>

<svg id="Layer_1" data-name="Layer 1" xmlns="http://www.w3.org/2000/svg" viewBox="0 0 50.56 50" width="50.56" height="50"><defs><style>.cls-1,.cls-3{fill:#cfff47;}.cls-2{fill:none;stroke:#cfff47;stroke-width:0.45px;}.cls-3{isolation:isolate;opacity:0.99;}</style></defs><path class="cls-1" d="M7.68 0h14l-2.5 2.13H4.82Z"/><path class="cls-2" d="M50.34 5.36v24.8l-4.54 4.38v11.18l-4.22 4.06H0.22v-42.15L4.77 3.25 30.55 3.37l3.89 -3h11Z"/><path class="cls-1" d="M32.62 0h-1.88L28.25 2.13h1.94Z"/><path class="cls-1" d="M50.34 32.74v1.87l-2.13 2.5v-1.94Z"/><path class="cls-1" d="M29.93 0H28.05l-2.49 2.13H27.5Z"/><path class="cls-1" d="M50.34 35.43v1.88l-2.13 2.49v-1.94Z"/><path class="cls-1" d="M27.35 0h-1.87L23 2.13h1.94Z"/><path class="cls-1" d="M50.34 38v1.88l-2.13 2.5v-1.94Z"/><path class="cls-1" d="M24.78 0H22.9l-2.5 2.13h1.94Z"/><path class="cls-1" d="M50.34 40.58v1.88L48.21 45v-2Z"/><path class="cls-3" d="M48.09 5v26.32l-2.75 2.75v11l-4.22 4.22H0.9V8.11L4.79 4.22H30.9l3.57 -2.76h10.22Z"/></svg>
